assets/icons/ic-figma.svg

<svg width="18" height="18" viewBox="0 0 18 18" fill="none" xmlns="http://www.w3.org/2000/svg">
<path d="M6.82255 1.67435H9.35656V6.70708H6.82255C6.17342 6.70708 5.55087 6.44196 5.09187 5.97005C4.63287 5.49814 4.375 4.85809 4.375 4.19071V4.19071C4.375 3.52333 4.63287 2.88329 5.09187 2.41138C5.55087 1.93947 6.17342 1.67435 6.82255 1.67435V1.67435Z" stroke="#37352F" stroke-width="1.2" stroke-linecap="round" stroke-linejoin="round"/>
<path d="M6.82255 6.70708H9.35656V11.7398H6.82255C6.17342 11.7398 5.55087 11.4747 5.09187 11.0028C4.63287 10.5309 4.375 9.89082 4.375 9.22344V9.22344C4.375 8.55606 4.63287 7.91601 5.09187 7.4441C5.55087 6.97219 6.17342 6.70708 6.82255 6.70708V6.70708Z" stroke="#37352F" stroke-width="1.2" stroke-linecap="round" stroke-linejoin="round"/>
<path d="M11.8914 6.70708H11.805C10.4532 6.70708 9.35742 7.83369 9.35742 9.22344C9.35742 10.6132 10.4532 11.7398 11.805 11.7398H11.8914C13.2432 11.7398 14.339 10.6132 14.339 9.22344C14.339 7.83369 13.2432 6.70708 11.8914 6.70708Z" stroke="#37352F" stroke-width="1.2" stroke-linecap="round" stroke-linejoin="round"/>
<path d="M6.82255 11.7398H9.35656V14.1536C9.35656 14.8446 9.08958 15.5072 8.61436 15.9958C8.13914 16.4844 7.49461 16.7588 6.82255 16.7588V16.7588C6.17572 16.7589 5.55518 16.4956 5.09656 16.0267C4.63793 15.5577 4.37852 14.9212 4.375 14.2562V14.2562C4.375 13.5888 4.63287 12.9487 5.09187 12.4768C5.55087 12.0049 6.17342 11.7398 6.82255 11.7398V11.7398Z" stroke="#37352F" stroke-width="1.2" stroke-linecap="round" stroke-linejoin="round"/>
<path d="M11.8913 6.70706L9.35731 6.70706V1.67433L11.8913 1.67433C12.5404 1.67433 13.163 1.93945 13.622 2.41136C14.081 2.88327 14.3389 3.52332 14.3389 4.1907C14.3389 4.85808 14.081 5.49812 13.622 5.97003C13.163 6.44194 12.5404 6.70706 11.8913 6.70706V6.70706Z" stroke="#37352F" stroke-width="1.2" stroke-linecap="round" stroke-linejoin="round"/>
</svg>

<svg xmlns="http://www.w3.org/2000/svg" xmlns:xlink="http://www.w3.org/1999/xlink" width="18" height="18" fill="none" xmlns:v="https://vecta.io/nano"><g stroke="#37352f" stroke-width="1.2" stroke-linejoin="round"><use xlink:href="#B"/><use xlink:href="#B" y="5.033"/><path d="M11.891 6.707h-.086c-1.352 0-2.448 1.127-2.448 2.516s1.096 2.516 2.448 2.516h.086c1.352 0 2.448-1.127 2.448-2.516s-1.096-2.516-2.448-2.516zM6.823 11.74h2.534v2.414c0 .691-.267 1.354-.742 1.842a2.5 2.5 0 0 1-1.792.763h0c-.647 0-1.267-.263-1.726-.732s-.718-1.106-.722-1.771h0c0-.667.258-1.307.717-1.779s1.082-.737 1.731-.737h0z"/><path d="M11.891 6.707H9.357V1.674h2.534c.649 0 1.272.265 1.731.737s.717 1.112.717 1.779-.258 1.307-.717 1.779-1.082.737-1.731.737h0z"/></g><defs ><path id="B" d="M6.823 1.674h2.534v5.033H6.823c-.649 0-1.272-.265-1.731-.737s-.717-1.112-.717-1.779h0c0-.667.258-1.307.717-1.779s1.082-.737 1.731-.737h0z"/></defs></svg>
